Sweet-Rainbow/icons/kget.svg

<?xml version="1.0" encoding="UTF-8" standalone="no"?>
<!-- Generator: Gravit.io -->

<svg
   xmlns:dc="http://purl.org/dc/elements/1.1/"
   xmlns:cc="http://creativecommons.org/ns#"
   xmlns:rdf="http://www.w3.org/1999/02/22-rdf-syntax-ns#"
   xmlns:svg="http://www.w3.org/2000/svg"
   xmlns="http://www.w3.org/2000/svg"
   xmlns:sodipodi="http://sodipodi.sourceforge.net/DTD/sodipodi-0.dtd"
   xmlns:inkscape="http://www.inkscape.org/namespaces/inkscape"
   style="isolation:isolate"
   viewBox="0 0 36 36"
   width="48"
   height="48"
   version="1.1"
   id="svg9"
   sodipodi:docname="kget.svg"
   inkscape:version="0.92.4 (5da689c313, 2019-01-14)">
  <metadata
     id="metadata15">
    <rdf:RDF>
      <cc:Work
         rdf:about="">
        <dc:format>image/svg+xml</dc:format>
        <dc:type
           rdf:resource="http://purl.org/dc/dcmitype/StillImage" />
        <dc:title></dc:title>
      </cc:Work>
    </rdf:RDF>
  </metadata>
  <defs
     id="defs13" />
  <sodipodi:namedview
     pagecolor="#ffffff"
     bordercolor="#666666"
     borderopacity="1"
     objecttolerance="10"
     gridtolerance="10"
     guidetolerance="10"
     inkscape:pageopacity="0"
     inkscape:pageshadow="2"
     inkscape:window-width="640"
     inkscape:window-height="480"
     id="namedview11"
     showgrid="false"
     inkscape:zoom="29.365243"
     inkscape:cx="25.325443"
     inkscape:cy="32"
     inkscape:current-layer="svg9"
     units="px" />
  <linearGradient
     id="_lgradient_23"
     x1="0.040624999"
     y1="0.054347824"
     x2="0.96835077"
     y2="0.97395134"
     gradientTransform="matrix(46,0,0,46,0.959,1.03)"
     gradientUnits="userSpaceOnUse">
    <stop
       offset="0%"
       stop-opacity="1"
       style="stop-color:rgb(240,107,169)"
       id="stop2" />
    <stop
       offset="98.69565217391305%"
       stop-opacity="1"
       style="stop-color:rgb(66,216,246)"
       id="stop4" />
  </linearGradient>
  <g
     id="g826"
     transform="matrix(0.78259884,0,0,0.78259884,-0.75000312,-0.80587865)">
    <path
       id="path7"
       d="m 25.194,11.653 v 0 c 0,-0.777 0.631,-1.408 1.409,-1.408 v 0 c 0.777,0 1.408,0.631 1.408,1.408 v 0 1.2 0 c 0,0.777 -0.631,1.408 -1.408,1.408 v 0 c -0.778,0 -1.409,-0.631 -1.409,-1.408 v 0 z m 0,6.51 v 0 c 0,-0.777 0.631,-1.408 1.409,-1.408 v 0 c 0.777,0 1.408,0.631 1.408,1.408 v 0 6.104 h 4.808 c 2.591,0 3.306,1.58 1.594,3.525 l -7.526,8.556 c -1.712,1.946 -4.491,1.946 -6.203,0 l -7.526,-8.556 c -1.712,-1.945 -0.998,-3.525 1.594,-3.525 h 4.808 v -12.614 0 c 0,-0.777 0.631,-1.408 1.408,-1.408 v 0 c 0.778,0 1.409,0.631 1.409,1.408 v 0 15.431 h -4.583 c -0.518,0 -0.679,0.331 -0.358,0.738 l 5.769,7.332 c 0.32,0.408 0.841,0.408 1.161,0 l 5.769,-7.332 c 0.32,-0.407 0.16,-0.738 -0.359,-0.738 h -4.582 z m 8.239,22.329 v 0 c 0.958,-0.547 2.184,-0.216 2.736,0.739 v 0 c 0.553,0.955 0.225,2.179 -0.733,2.732 v 0 c -3.725,2.144 -7.974,3.2 -12.261,3.054 -3.888,-0.133 -7.682,-1.253 -11.026,-3.248 v 0 c -0.947,-0.568 -1.255,-1.798 -0.687,-2.745 v 0 c 0.568,-0.947 1.798,-1.255 2.745,-0.687 v 0 c 2.755,1.655 5.886,2.572 9.104,2.682 3.548,0.121 7.05,-0.75 10.122,-2.527 z m 7.534,-24.937 v 0 c -0.496,-0.989 -0.096,-2.193 0.892,-2.686 v 0 c 0.989,-0.494 2.19,-0.092 2.681,0.896 v 0 c 1.715,3.421 2.536,7.221 2.405,11.049 -0.099,2.918 -0.747,5.788 -1.919,8.449 v 0 c -0.443,1.012 -1.624,1.474 -2.637,1.031 v 0 c -1.012,-0.443 -1.473,-1.625 -1.03,-2.637 v 0 c 0.975,-2.198 1.506,-4.571 1.589,-6.98 0.107,-3.158 -0.576,-6.293 -1.981,-9.122 z M 15.727,6.91 v 0 c -0.993,0.474 -2.19,0.052 -2.669,-0.942 v 0 c -0.48,-0.994 -0.063,-2.19 0.931,-2.67 v 0 C 17.336,1.691 21.024,0.917 24.742,1.043 28.32,1.165 31.83,2.116 34.973,3.834 v 0 c 0.971,0.53 1.328,1.748 0.798,2.718 v 0 C 35.241,7.523 34.023,7.88 33.052,7.35 v 0 C 30.459,5.931 27.564,5.142 24.606,5.041 21.538,4.936 18.494,5.573 15.727,6.91 Z M 5.933,30.059 v 0 c 0.351,1.045 -0.215,2.178 -1.262,2.529 v 0 C 3.623,32.939 2.488,32.371 2.137,31.321 v 0 C 1.276,28.72 0.879,25.985 0.972,23.246 1.095,19.628 2.067,16.079 3.826,12.907 v 0 c 0.53,-0.964 1.745,-1.313 2.713,-0.778 v 0 c 0.967,0.536 1.318,1.754 0.783,2.719 v 0 c -1.45,2.622 -2.251,5.546 -2.352,8.535 -0.078,2.268 0.246,4.521 0.963,6.676 z M 41.174,9.498 c -0.038,1.103 -0.964,1.969 -2.067,1.931 -1.103,-0.038 -1.969,-0.964 -1.931,-2.067 0.038,-1.103 0.964,-1.968 2.067,-1.931 1.103,0.038 1.968,0.964 1.931,2.067 z M 9.931,37.22 C 9.893,38.323 8.967,39.188 7.864,39.15 6.761,39.113 5.896,38.187 5.933,37.083 5.971,35.98 6.897,35.115 8,35.153 9.103,35.19 9.969,36.116 9.931,37.22 Z m 32.016,1.091 c 0.038,-1.103 -0.827,-2.029 -1.93,-2.067 -1.103,-0.037 -2.03,0.828 -2.067,1.931 -0.038,1.103 0.827,2.029 1.93,2.067 1.104,0.038 2.03,-0.827 2.067,-1.931 z M 11.371,8.482 C 11.409,7.379 10.544,6.453 9.44,6.415 8.337,6.377 7.411,7.243 7.373,8.346 c -0.037,1.103 0.828,2.029 1.931,2.067 1.103,0.037 2.029,-0.828 2.067,-1.931 z"
       style="fill:url(#_lgradient_23);fill-rule:evenodd"
       inkscape:connector-curvature="0" />
  </g>
</svg>

<?xml version="1.0" encoding="UTF-8" standalone="no"?><!-- Generator: Gravit.io --><svg xmlns="http://www.w3.org/2000/svg" xmlns:xlink="http://www.w3.org/1999/xlink" style="isolation:isolate" viewBox="0 0 48 48" width="48pt" height="48pt"><linearGradient id="_lgradient_23" x1="0.04062500000000003" y1="0.054347826086956486" x2="0.9683507709251103" y2="0.9739513503160315" gradientTransform="matrix(46,0,0,46,0.959,1.03)" gradientUnits="userSpaceOnUse"><stop offset="0%" stop-opacity="1" style="stop-color:rgb(240,107,169)"/><stop offset="98.69565217391305%" stop-opacity="1" style="stop-color:rgb(66,216,246)"/></linearGradient><path d=" M 25.194 11.653 L 25.194 11.653 C 25.194 10.876 25.825 10.245 26.603 10.245 L 26.603 10.245 C 27.38 10.245 28.011 10.876 28.011 11.653 L 28.011 11.653 L 28.011 12.853 L 28.011 12.853 C 28.011 13.63 27.38 14.261 26.603 14.261 L 26.603 14.261 C 25.825 14.261 25.194 13.63 25.194 12.853 L 25.194 12.853 L 25.194 11.653 L 25.194 11.653 L 25.194 11.653 L 25.194 11.653 L 25.194 11.653 L 25.194 11.653 L 25.194 11.653 L 25.194 11.653 L 25.194 11.653 Z  M 25.194 18.163 L 25.194 18.163 C 25.194 17.386 25.825 16.755 26.603 16.755 L 26.603 16.755 C 27.38 16.755 28.011 17.386 28.011 18.163 L 28.011 18.163 L 28.011 24.267 L 32.819 24.267 C 35.41 24.267 36.125 25.847 34.413 27.792 L 26.887 36.348 C 25.175 38.294 22.396 38.294 20.684 36.348 L 13.158 27.792 C 11.446 25.847 12.16 24.267 14.752 24.267 L 19.56 24.267 L 19.56 11.653 L 19.56 11.653 C 19.56 10.876 20.191 10.245 20.968 10.245 L 20.968 10.245 C 21.746 10.245 22.377 10.876 22.377 11.653 L 22.377 11.653 L 22.377 27.084 L 17.794 27.084 C 17.276 27.084 17.115 27.415 17.436 27.822 L 23.205 35.154 C 23.525 35.562 24.046 35.562 24.366 35.154 L 30.135 27.822 C 30.455 27.415 30.295 27.084 29.776 27.084 L 25.194 27.084 L 25.194 18.163 L 25.194 18.163 L 25.194 18.163 L 25.194 18.163 L 25.194 18.163 L 25.194 18.163 L 25.194 18.163 L 25.194 18.163 L 25.194 18.163 Z  M 33.433 40.492 L 33.433 40.492 C 34.391 39.945 35.617 40.276 36.169 41.231 L 36.169 41.231 C 36.722 42.186 36.394 43.41 35.436 43.963 L 35.436 43.963 C 31.711 46.107 27.462 47.163 23.175 47.017 C 19.287 46.884 15.493 45.764 12.149 43.769 L 12.149 43.769 C 11.202 43.201 10.894 41.971 11.462 41.024 L 11.462 41.024 C 12.03 40.077 13.26 39.769 14.207 40.337 L 14.207 40.337 C 16.962 41.992 20.093 42.909 23.311 43.019 C 26.859 43.14 30.361 42.269 33.433 40.492 L 33.433 40.492 L 33.433 40.492 L 33.433 40.492 L 33.433 40.492 L 33.433 40.492 L 33.433 40.492 L 33.433 40.492 Z  M 40.967 15.555 L 40.967 15.555 C 40.471 14.566 40.871 13.362 41.859 12.869 L 41.859 12.869 C 42.848 12.375 44.049 12.777 44.54 13.765 L 44.54 13.765 C 46.255 17.186 47.076 20.986 46.945 24.814 C 46.846 27.732 46.198 30.602 45.026 33.263 L 45.026 33.263 C 44.583 34.275 43.402 34.737 42.389 34.294 L 42.389 34.294 C 41.377 33.851 40.916 32.669 41.359 31.657 L 41.359 31.657 C 42.334 29.459 42.865 27.086 42.948 24.677 C 43.055 21.519 42.372 18.384 40.967 15.555 L 40.967 15.555 L 40.967 15.555 L 40.967 15.555 L 40.967 15.555 L 40.967 15.555 L 40.967 15.555 Z  M 15.727 6.91 L 15.727 6.91 C 14.734 7.384 13.537 6.962 13.058 5.968 L 13.058 5.968 C 12.578 4.974 12.995 3.778 13.989 3.298 L 13.989 3.298 C 17.336 1.691 21.024 0.917 24.742 1.043 C 28.32 1.165 31.83 2.116 34.973 3.834 L 34.973 3.834 C 35.944 4.364 36.301 5.582 35.771 6.552 L 35.771 6.552 C 35.241 7.523 34.023 7.88 33.052 7.35 L 33.052 7.35 C 30.459 5.931 27.564 5.142 24.606 5.041 C 21.538 4.936 18.494 5.573 15.727 6.91 L 15.727 6.91 L 15.727 6.91 L 15.727 6.91 L 15.727 6.91 L 15.727 6.91 Z  M 5.933 30.059 L 5.933 30.059 C 6.284 31.104 5.718 32.237 4.671 32.588 L 4.671 32.588 C 3.623 32.939 2.488 32.371 2.137 31.321 L 2.137 31.321 C 1.276 28.72 0.879 25.985 0.972 23.246 C 1.095 19.628 2.067 16.079 3.826 12.907 L 3.826 12.907 C 4.356 11.943 5.571 11.594 6.539 12.129 L 6.539 12.129 C 7.506 12.665 7.857 13.883 7.322 14.848 L 7.322 14.848 C 5.872 17.47 5.071 20.394 4.97 23.383 C 4.892 25.651 5.216 27.904 5.933 30.059 L 5.933 30.059 L 5.933 30.059 L 5.933 30.059 L 5.933 30.059 Z  M 41.174 9.498 C 41.136 10.601 40.21 11.467 39.107 11.429 C 38.004 11.391 37.138 10.465 37.176 9.362 C 37.214 8.259 38.14 7.394 39.243 7.431 C 40.346 7.469 41.211 8.395 41.174 9.498 L 41.174 9.498 L 41.174 9.498 L 41.174 9.498 Z  M 9.931 37.22 C 9.893 38.323 8.967 39.188 7.864 39.15 C 6.761 39.113 5.896 38.187 5.933 37.083 C 5.971 35.98 6.897 35.115 8 35.153 C 9.103 35.19 9.969 36.116 9.931 37.22 L 9.931 37.22 L 9.931 37.22 Z  M 41.947 38.311 C 41.985 37.208 41.12 36.282 40.017 36.244 C 38.914 36.207 37.987 37.072 37.95 38.175 C 37.912 39.278 38.777 40.204 39.88 40.242 C 40.984 40.28 41.91 39.415 41.947 38.311 L 41.947 38.311 Z  M 11.371 8.482 C 11.409 7.379 10.544 6.453 9.44 6.415 C 8.337 6.377 7.411 7.243 7.373 8.346 C 7.336 9.449 8.201 10.375 9.304 10.413 C 10.407 10.45 11.333 9.585 11.371 8.482 Z " fill-rule="evenodd" fill="url(#_lgradient_23)"/></svg>
